src/icons/main-help.svg

<?xml version="1.0" encoding="UTF-8"?>
<svg width="14px" height="14px" viewBox="0 0 14 14" version="1.1" xmlns="http://www.w3.org/2000/svg" xmlns:xlink="http://www.w3.org/1999/xlink">
    <!-- Generator: Sketch 59 (86127) - https://sketch.com -->
    <title>HDL/Icon/Standard/help</title>
    <desc>Created with Sketch.</desc>
    <g id="Colors" stroke="none" stroke-width="1" fill="none" fill-rule="evenodd">
        <g id="Main-Icons" transform="translate(-1121.000000, -782.000000)" fill="#4D5969">
            <g id="Triggers" transform="translate(1100.000000, 764.000000)">
                <g id="HDL/Icon/Standard/help" transform="translate(21.000000, 18.000000)">
                    <path d="M2.91666667,0 C2.59583333,0 2.33333333,0.2625 2.33333333,0.583333333 L2.33333333,1.16666667 L0.583333333,1.16666667 C0.2625,1.16666667 -1.50990331e-14,1.42916667 -1.50990331e-14,1.75 L-1.50990331e-14,13.4166667 C-1.50990331e-14,13.7375 0.2625,14 0.583333333,14 L12.8333333,14 C13.1541667,14 13.4166667,13.7375 13.4166667,13.4166667 L13.4166667,11.0833333 C13.4166667,10.9666667 13.3583333,10.8791667 13.2708333,10.8208333 C13.1833333,10.7625 13.0666667,10.7625 12.9791667,10.8208333 C12.8916667,10.8791667 12.8333333,10.9666667 12.8333333,11.0833333 L12.8333333,13.4166667 L0.583333333,13.4166667 L0.583333333,4.66666667 L12.8333333,4.66666667 L12.8333333,6.70833333 C12.8333333,6.825 12.8916667,6.9125 12.9791667,6.97083333 C13.0666667,7.02916667 13.1833333,7.02916667 13.2708333,6.97083333 C13.3583333,6.9125 13.4166667,6.825 13.4166667,6.70833333 L13.4166667,1.75 C13.4166667,1.42916667 13.1541667,1.16666667 12.8333333,1.16666667 L11.0833333,1.16666667 L11.0833333,0.583333333 C11.0833333,0.2625 10.8208333,0 10.5,0 L9.91666667,0 C9.59583333,0 9.33333333,0.2625 9.33333333,0.583333333 L9.33333333,1.16666667 L4.08333333,1.16666667 L4.08333333,0.583333333 C4.08333333,0.2625 3.82083333,0 3.5,0 L2.91666667,0 Z M2.91666667,0.583333333 L3.5,0.583333333 L3.5,2.33333333 L2.91666667,2.33333333 L2.91666667,1.51666667 C2.91666667,1.4875 2.91666667,1.45833333 2.91666667,1.42916667 L2.91666667,0.583333333 Z M9.91666667,0.583333333 L10.5,0.583333333 L10.5,1.4 C10.5,1.42916667 10.5,1.45833333 10.5,1.4875 L10.5,2.33333333 L9.91666667,2.33333333 L9.91666667,0.583333333 Z M0.583333333,1.75 L2.33333333,1.75 L2.33333333,2.33333333 C2.33333333,2.65416667 2.59583333,2.91666667 2.91666667,2.91666667 L3.5,2.91666667 C3.82083333,2.91666667 4.08333333,2.65416667 4.08333333,2.33333333 L4.08333333,1.75 L9.33333333,1.75 L9.33333333,2.33333333 C9.33333333,2.65416667 9.59583333,2.91666667 9.91666667,2.91666667 L10.5,2.91666667 C10.8208333,2.91666667 11.0833333,2.65416667 11.0833333,2.33333333 L11.0833333,1.75 L12.8333333,1.75 L12.8333333,4.08333333 L0.583333333,4.08333333 L0.583333333,1.75 Z M11.2583333,6.53333333 C11.1416667,6.53333333 11.025,6.59166667 10.9958333,6.70833333 C10.9375,6.825 10.9666667,6.94166667 11.0541667,7.02916667 L12.3958333,8.45833333 L7.29166667,8.45833333 C7.175,8.45833333 7.0875,8.51666667 7.02916667,8.60416667 C6.97083333,8.69166667 6.97083333,8.80833333 7.02916667,8.89583333 C7.0875,8.98333333 7.175,9.04166667 7.29166667,9.04166667 L12.4541667,9.04166667 L11.0833333,10.5 C10.9666667,10.6166667 10.9666667,10.7916667 11.0833333,10.9083333 C11.2,11.025 11.375,11.025 11.4916667,10.9083333 L13.5333333,8.77916667 L11.4916667,6.65 C11.4333333,6.59166667 11.3458333,6.53333333 11.2583333,6.53333333 Z" id="Shape"></path>
                </g>
            </g>
        </g>
    </g>
</svg>

<?xml version="1.0" encoding="utf-8"?>
<!-- Generator: Adobe Illustrator 20.1.0, SVG Export Plug-In . SVG Version: 6.00 Build 0)  -->
<svg version="1.1" id="Layer_1" xmlns="http://www.w3.org/2000/svg" xmlns:xlink="http://www.w3.org/1999/xlink" x="0px" y="0px"
	 viewBox="0 0 14 14" style="enable-background:new 0 0 14 14;" xml:space="preserve">
<style type="text/css">
	.st0{fill:#4D5969;}
</style>
<title>HDL/Icon/Standard/help</title>
<desc>Created with Sketch.</desc>
<g id="Colors">
	<g id="Main-Icons" transform="translate(-1121.000000, -782.000000)">
		<g id="Triggers" transform="translate(1100.000000, 764.000000)">
			<g id="HDL_x2F_Icon_x2F_Standard_x2F_help" transform="translate(21.000000, 18.000000)">
				<path id="Shape" class="st0" d="M2.9,0C2.6,0,2.3,0.3,2.3,0.6v0.6H0.6C0.3,1.2,0,1.4,0,1.8v11.7C0,13.7,0.3,14,0.6,14h12.2
					c0.3,0,0.6-0.3,0.6-0.6v-2.3c0-0.1-0.1-0.2-0.1-0.3c-0.1-0.1-0.2-0.1-0.3,0c-0.1,0.1-0.1,0.1-0.1,0.3v2.3H0.6V4.7h12.2v2
					c0,0.1,0.1,0.2,0.1,0.3C13.1,7,13.2,7,13.3,7c0.1-0.1,0.1-0.1,0.1-0.3v-5c0-0.3-0.3-0.6-0.6-0.6h-1.8V0.6c0-0.3-0.3-0.6-0.6-0.6
					H9.9C9.6,0,9.3,0.3,9.3,0.6v0.6H4.1V0.6C4.1,0.3,3.8,0,3.5,0H2.9z M2.9,0.6h0.6v1.8H2.9V1.5c0,0,0-0.1,0-0.1V0.6z M9.9,0.6h0.6
					v0.8c0,0,0,0.1,0,0.1v0.8H9.9V0.6z M0.6,1.8h1.8v0.6c0,0.3,0.3,0.6,0.6,0.6h0.6c0.3,0,0.6-0.3,0.6-0.6V1.8h5.2v0.6
					c0,0.3,0.3,0.6,0.6,0.6h0.6c0.3,0,0.6-0.3,0.6-0.6V1.8h1.8v2.3H0.6V1.8z M11.3,6.5c-0.1,0-0.2,0.1-0.3,0.2
					c-0.1,0.1,0,0.2,0.1,0.3l1.3,1.4H7.3C7.2,8.5,7.1,8.5,7,8.6C7,8.7,7,8.8,7,8.9C7.1,9,7.2,9,7.3,9h5.2l-1.4,1.5
					c-0.1,0.1-0.1,0.3,0,0.4c0.1,0.1,0.3,0.1,0.4,0l2-2.1l-2-2.1C11.4,6.6,11.3,6.5,11.3,6.5z"/>
			</g>
		</g>
	</g>
</g>
</svg>
